X: 110
T: REEL: Morning Star
C: C: Trad.; S: Bothy Band
C: Set Leaders: Mars, Anton
Z: Anton Zille ed.; UPipes & harp at The Session
N: https://thesession.org/members/26966/sets/94278
R: Reel
M: 4/4
L: 1/8
Q: 1/2=100
K: Gmaj
B2 BA BGEF|G2 Bd efgd|~B3A BGEF|GBAF G3A|
~B3A BGEF|GABd efge|dBAc BGEF|GBAF G3A||
Bdef g2 eg|f2 df eBBA|B/c/d ef g2 eg|fedf e2 ed|
B/c/d ef ~g2 eg|~f2 df eBBA|Bdef g2 bg|faaf gfed||

